svgs/light/message.svg

<svg xmlns="http://www.w3.org/2000/svg" viewBox="0 0 512 512"><!-- Font Awesome Pro 6.0.0-alpha2 by @fontawesome - https://fontawesome.com License - https://fontawesome.com/license (Commercial License) --><path d="M448 0H64C28.75 0 0 28.75 0 64V352.002C0 387.252 28.75 416.002 64 416.002H160V500.003C160 509.84 171.025 515.478 179.125 509.628L304 416.002H448C483.25 416.002 512 387.252 512 352.002V64C512 28.75 483.25 0 448 0ZM480 352.002C480 369.602 465.6 384.002 448 384.002H303.924C296.996 384.002 290.254 386.25 284.713 390.408L192 460.003V400.002C192 391.164 184.836 384.002 176 384.002H64C46.4 384.002 32 369.602 32 352.002V64C32 46.401 46.4 32 64 32H448C465.6 32 480 46.401 480 64V352.002Z"/></svg>

<svg xmlns="http://www.w3.org/2000/svg" viewBox="0 0 512 512"><!--! Font Awesome Pro 6.0.0-alpha3 by @fontawesome - https://fontawesome.com License - https://fontawesome.com/license (Commercial License) --><path d="M447.1 0h-384c-35.25 0-64 28.75-64 63.1v287.1c0 35.25 28.75 63.1 64 63.1h96v83.98c0 9.837 11.02 15.55 19.12 9.7l124.9-93.68h144c35.25 0 64-28.75 64-63.1V63.1C511.1 28.75 483.2 0 447.1 0zM480 352c0 17.6-14.4 32-32 32h-144.1c-6.928 0-13.67 2.248-19.21 6.406L192 460v-60c0-8.838-7.164-16-16-16H64c-17.6 0-32-14.4-32-32V64c0-17.6 14.4-32 32-32h384c17.6 0 32 14.4 32 32V352z"/></svg>
